X:31
T:Rosalie The Prairie Flower
C: (or Northumbrian Schottische)
Q:1/4=140
I:abc2nwc
M:4/4
L:1/8
K:D
f3/2e/2 d3/2c/2 d2B2|A3/2B/2 A/2F3/2 A4|f3/2e/2 d3/2c/2 d2f2|e2B2e4|
f3/2e/2 d3/2c/2 d2B2|A3/2B/2 A/2F3/2 A4|B3/2c/2 d3/2e/2 f2e2|d4d4:|
|:e2d3/2e/2 f2a2|e2d3/2e/2 f4|d2c3/2d/2 e2f2|d2c3/2d/2 e2A2|
f3/2e/2 d3/2c/2 d2B2|A3/2B/2 A/2F3/2 A4|B3/2c/2 d3/2e/2 f2e2|d4d4:|


